SVG_Azure_All/Cognitive Services Speech.svg

<?xml version="1.0" encoding="UTF-8" standalone="no"?>
<!-- Generated by Microsoft Visio, SVG Export Cognitive Services Speech.svg Page-1 -->

<svg
   xmlns:dc="http://purl.org/dc/elements/1.1/"
   xmlns:cc="http://creativecommons.org/ns#"
   xmlns:rdf="http://www.w3.org/1999/02/22-rdf-syntax-ns#"
   xmlns:svg="http://www.w3.org/2000/svg"
   xmlns="http://www.w3.org/2000/svg"
   xmlns:sodipodi="http://sodipodi.sourceforge.net/DTD/sodipodi-0.dtd"
   xmlns:inkscape="http://www.inkscape.org/namespaces/inkscape"
   width="0.78735799in"
   height="0.78833961in"
   viewBox="0 0 56.6897 56.76038"
   xml:space="preserve"
   class="st4"
   version="1.1"
   id="svg35"
   sodipodi:docname="Cognitive Services Speech.svg"
   style="font-size:12px;overflow:visible;color-interpolation-filters:sRGB;fill:none;fill-rule:evenodd;stroke-linecap:square;stroke-miterlimit:3"
   inkscape:version="0.92.5 (2060ec1f9f, 2020-04-08)"><metadata
   id="metadata39"><rdf:RDF><cc:Work
       rdf:about=""><dc:format>image/svg+xml</dc:format><dc:type
         rdf:resource="http://purl.org/dc/dcmitype/StillImage" /></cc:Work></rdf:RDF></metadata><sodipodi:namedview
   pagecolor="#ffffff"
   bordercolor="#666666"
   borderopacity="1"
   objecttolerance="10"
   gridtolerance="10"
   guidetolerance="10"
   inkscape:pageopacity="0"
   inkscape:pageshadow="2"
   inkscape:window-width="640"
   inkscape:window-height="480"
   id="namedview37"
   showgrid="false"
   inkscape:zoom="1.4375966"
   inkscape:cx="37.795118"
   inkscape:cy="36.823618"
   inkscape:window-x="0"
   inkscape:window-y="0"
   inkscape:window-maximized="0"
   inkscape:current-layer="svg35" />
	<style
   type="text/css"
   id="style2">
	<![CDATA[
		.st1 {fill:#50e6ff;stroke:none;stroke-linecap:butt;stroke-width:32.4137}
		.st2 {fill:url(#grad0-8);stroke:none;stroke-linecap:butt;stroke-width:32.4137}
		.st3 {fill:#ffffff;stroke:none;stroke-linecap:butt;stroke-width:32.4137}
		.st4 {fill:none;fill-rule:evenodd;font-size:12px;overflow:visible;stroke-linecap:square;stroke-miterlimit:3}
	]]>
	</style>

	<defs
   id="Patterns_And_Gradients">
		<linearGradient
   id="grad0-8"
   x1="0"
   y1="90.018601"
   x2="35.200244"
   y2="90.018601"
   gradientTransform="scale(1.0164703,0.98379661)"
   gradientUnits="userSpaceOnUse">
			<stop
   offset="0"
   stop-color="#5ea0ef"
   stop-opacity="1"
   id="stop4" />
			<stop
   offset="1"
   stop-color="#0078d4"
   stop-opacity="1"
   id="stop6" />
		</linearGradient>
	</defs>
	<g
   id="g33"
   transform="translate(-32.4137,-32.418295)">
		<title
   id="title10">Page-1</title>
		<g
   id="group6338-1"
   transform="translate(32.4137,-34.0157)">
			<title
   id="title12">Cognitive Services Speech</title>
			<g
   id="group6339-2">
				<title
   id="title14">g8</title>
				<g
   id="shape6340-3"
   transform="translate(20.9197)">
					<title
   id="title16">path2</title>
					<path
   d="M 2.07,88.56 H 33.7 a 2.07559,2.07822 0 0 1 2.07,2.08 v 25.17 a 2.07874,2.08137 0 0 1 -2.07,2.07 H 20.75 a 0.343307,0.343742 -180 0 0 -0.211024,0.0725 L 13.9,123.05 a 0.689764,0.690638 0 0 1 -1.11181,-0.54873 L 12.79,118.23 a 0.346457,0.346896 -180 0 0 -0.343307,-0.3469 L 2.07,117.88 A 2.07559,2.07822 0 0 1 0,115.81 V 90.64 a 2.07874,2.08137 0 0 1 2.07,-2.08 z"
   class="st1"
   id="path18"
   inkscape:connector-curvature="0"
   style="fill:#50e6ff;stroke:none;stroke-width:32.4137001;stroke-linecap:butt" />
				</g>
				<g
   id="shape6341-5"
   transform="translate(0,-22.126)">
					<title
   id="title21">path4</title>
					<path
   d="m 35.78,90.63 v 25.17 a 2.07559,2.07822 0 0 1 -2.08,2.08 H 23.31 a 0.346457,0.346896 -180 0 0 -0.343307,0.3469 L 22.96,122.5 a 0.692913,0.693792 0 0 1 -1.11181,0.54873 L 15.23,117.95 a 0.343307,0.343742 -180 0 0 -0.211024,-0.0631 L 2.08,117.88 A 2.07874,2.08137 0 0 1 0,115.8 V 90.63 A 2.07559,2.07822 0 0 1 2.08,88.56 H 33.7 a 2.07874,2.08137 0 0 1 2.08,2.07 z"
   class="st2"
   id="path23"
   inkscape:connector-curvature="0"
   style="fill:url(#grad0-8);stroke:none;stroke-width:32.4137001;stroke-linecap:butt" />
				</g>
				<g
   id="shape6342-9"
   transform="translate(9.44882,-17.7209)">
					<title
   id="title26">path6</title>
					<path
   d="m 16.06,97.58 a 10.9606,10.9745 0 0 1 -0.22,2.21 11.6157,11.6305 0 0 1 -0.63,2.11 10.2331,10.246 0 0 1 -1.03,1.94 12.6929,12.709 0 0 1 -1.06,1.34 0.491339,0.491961 0 0 1 -0.711811,0 L 12.31,105.08 a 0.500787,0.501422 0 0 1 0,-0.69379 10.2709,10.2839 -180 0 0 0.94,-1.18621 9.96535,9.97799 -180 0 0 1.51,-3.64 10.211,10.224 -180 0 0 0,-3.98 9.85827,9.87076 -180 0 0 -0.57,-1.89 10.4283,10.4416 -180 0 0 -0.95,-1.74 9.78583,9.79823 -180 0 0 -0.94,-1.2 0.503937,0.504576 0 0 1 0,-0.693792 L 12.4,89.96 a 0.491339,0.491961 0 0 1 0.708661,0 11.1969,11.211 0 0 1 1.051339,1.35 10.8756,10.8894 0 0 1 1.03,1.94 11.8425,11.8575 0 0 1 0.63,2.1 10.3937,10.4069 0 0 1 0.24,2.23 z m -3.7,-3.02 A 7.92441,7.93445 -180 0 0 11,92.37 a 0.488189,0.488808 -180 0 0 -0.711811,0 L 10.19,92.47 a 0.485039,0.485654 -180 0 0 -0.0315,0.665409 6.74646,6.75501 0 0 1 0.0015,8.904591 0.488189,0.488808 -180 0 0 0.0315,0.66856 L 10.29,102.81 a 0.488189,0.488808 -180 0 0 0.711811,0 8.0189,8.02906 -180 0 0 1.358189,-2.19 7.90551,7.91553 -180 0 0 0,-6.04 z m -3.9,0.94 a 3.57165,3.57618 0 0 1 0.45,0.79 3.42677,3.43111 0 0 1 0,2.59 3.18425,3.18829 0 0 1 -0.45,0.78 0.491339,0.491961 -180 0 0 0.044094,0.64649 L 8.6,100.4 A 0.500787,0.501422 -180 0 0 9.340157,100.36216 4.47559,4.48126 -180 0 0 9.97,99.31 4.54803,4.5538 -180 0 0 10.31,97.58 4.68031,4.68625 -180 0 0 9.96,95.86 4.28031,4.28574 -180 0 0 9.35,94.81 0.497638,0.498269 -180 0 0 8.606693,94.769003 L 8.5,94.87 A 0.48189,0.482501 -180 0 0 8.455906,95.50072 Z M 2.16,94.2 H 0.99 A 0.988976,0.99023 -180 0 0 0.001024,95.187076 L 0,99.98 a 0.992126,0.993383 -180 0 0 0.988976,0.99023 L 2.17,100.97 a 0.988976,0.99023 0 0 1 0.699213,0.29013 L 5.82,104.2 a 0.507087,0.507729 -180 0 0 0.349606,0.14507 0.588976,0.589723 -180 0 0 0.588976,-0.58973 L 6.76,91.4 A 0.595276,0.59603 -180 0 0 6.164724,90.80397 0.510236,0.510883 -180 0 0 5.811968,90.949036 L 2.87,93.93 a 0.992126,0.993383 0 0 1 -0.699213,0.277517 z m 36.3,24.43 a 2.61732,2.62064 0 1 1 -2.61,2.61 2.61417,2.61749 0 0 1 2.61,-2.61 z m -10.96,2.63 a 2.61732,2.62064 -180 1 0 2.62,-2.61 2.61732,2.62064 -180 0 0 -2.62,2.61 z m -8.34,0 a 2.61732,2.62064 -180 1 0 2.61,-2.61 2.61732,2.62064 -180 0 0 -2.61,2.61 z"
   class="st3"
   id="path28"
   inkscape:connector-curvature="0"
   style="fill:#ffffff;stroke:none;stroke-width:32.4137001;stroke-linecap:butt" />
				</g>
			</g>
		</g>
	</g>
</svg>

<?xml version="1.0" encoding="UTF-8" standalone="no"?>
<!DOCTYPE svg PUBLIC "-//W3C//DTD SVG 1.1//EN" "http://www.w3.org/Graphics/SVG/1.1/DTD/svg11.dtd">
<!-- Generated by Microsoft Visio, SVG Export Cognitive Services Speech.svg Page-1 -->
<svg xmlns="http://www.w3.org/2000/svg" xmlns:xlink="http://www.w3.org/1999/xlink" xmlns:ev="http://www.w3.org/2001/xml-events"
		width="1.68778in" height="1.71003in" viewBox="0 0 121.52 123.122" xml:space="preserve" color-interpolation-filters="sRGB"
		class="st4">
	<style type="text/css">
	<![CDATA[
		.st1 {fill:#50e6ff;stroke:none;stroke-linecap:butt;stroke-width:32.4137}
		.st2 {fill:url(#grad0-8);stroke:none;stroke-linecap:butt;stroke-width:32.4137}
		.st3 {fill:#ffffff;stroke:none;stroke-linecap:butt;stroke-width:32.4137}
		.st4 {fill:none;fill-rule:evenodd;font-size:12px;overflow:visible;stroke-linecap:square;stroke-miterlimit:3}
	]]>
	</style>

	<defs id="Patterns_And_Gradients">
		<linearGradient id="grad0-8" x1="0" y1="0" x2="1" y2="0" gradientTransform="rotate(90 0.5 0.5)">
			<stop offset="0" stop-color="#5ea0ef" stop-opacity="1"/>
			<stop offset="1" stop-color="#0078d4" stop-opacity="1"/>
		</linearGradient>
	</defs>
	<g>
		<title>Page-1</title>
		<g id="group6170-1" transform="translate(32.4137,-34.0157)">
			<title>Cognitive Services Speech</title>
			<g id="group6171-2">
				<title>g8</title>
				<g id="shape6172-3" transform="translate(20.9197,-2.84217E-13)">
					<title>path2</title>
					<path d="M2.07 88.56 L33.7 88.56 A2.07559 2.07822 0 0 1 35.77 90.64 L35.77 115.81 A2.07874 2.08137 0 0 1 33.7
								 117.88 L20.75 117.88 a0.343307 0.343742 -180 0 0 -0.211024 0.0725328 L13.9 123.05 a0.689764 0.690638
								 0 0 1 -1.11181 -0.548726 L12.79 118.23 a0.346457 0.346896 -180 0 0 -0.343307 -0.346896 L2.07 117.88
								 A2.07559 2.07822 0 0 1 0 115.81 L0 90.64 A2.07874 2.08137 0 0 1 2.07 88.56 Z" class="st1"/>
				</g>
				<g id="shape6173-5" transform="translate(-2.89768E-13,-22.126)">
					<title>path4</title>
					<path d="M35.78 90.63 L35.78 115.8 A2.07559 2.07822 0 0 1 33.7 117.88 L23.31 117.88 a0.346457 0.346896 -180 0
								 0 -0.343307 0.346896 L22.96 122.5 a0.692913 0.693792 0 0 1 -1.11181 0.548726 L15.23 117.95 a0.343307
								 0.343742 -180 0 0 -0.211024 -0.063072 L2.08 117.88 A2.07874 2.08137 0 0 1 0 115.8 L0 90.63 A2.07559
								 2.07822 0 0 1 2.08 88.56 L33.7 88.56 A2.07874 2.08137 0 0 1 35.78 90.63 Z" class="st2"/>
				</g>
				<g id="shape6174-9" transform="translate(9.44882,-17.7209)">
					<title>path6</title>
					<path d="M16.06 97.58 A10.9606 10.9745 0 0 1 15.84 99.79 A11.6157 11.6305 0 0 1 15.21 101.9 A10.2331 10.246 0
								 0 1 14.18 103.84 A12.6929 12.709 0 0 1 13.12 105.18 a0.491339 0.491961 0 0 1 -0.711811 1.42109E-14
								 L12.31 105.08 a0.500787 0.501422 0 0 1 -2.30926E-14 -0.693792 A10.2709 10.2839 -180 0 0 13.25 103.2
								 A9.96535 9.97799 -180 0 0 14.76 99.56 A10.211 10.224 -180 0 0 14.76 95.58 A9.85827 9.87076 -180
								 0 0 14.19 93.69 A10.4283 10.4416 -180 0 0 13.24 91.95 A9.78583 9.79823 -180 0 0 12.3 90.75 a0.503937
								 0.504576 0 0 1 -4.61853E-14 -0.693792 L12.4 89.96 a0.491339 0.491961 0 0 1 0.708661 1.42109E-14
								 A11.1969 11.211 0 0 1 14.16 91.31 A10.8756 10.8894 0 0 1 15.19 93.25 A11.8425 11.8575 0 0 1 15.82
								 95.35 A10.3937 10.4069 0 0 1 16.06 97.58 ZM12.36 94.56 A7.92441 7.93445 -180 0 0 11 92.37 a0.488189
								 0.488808 -180 0 0 -0.711811 -5.68434E-14 L10.19 92.47 a0.485039 0.485654 -180 0 0 -0.0314961 0.665409
								 A6.74646 6.75501 0 0 1 10.16 102.04 a0.488189 0.488808 -180 0 0 0.0314961 0.668563 L10.29 102.81
								 a0.488189 0.488808 -180 0 0 0.711811 2.84217E-14 A8.0189 8.02906 -180 0 0 12.36 100.62 A7.90551
								 7.91553 -180 0 0 12.36 94.58 L12.36 94.56 ZM8.46 95.5 A3.57165 3.57618 0 0 1 8.91 96.29 A3.42677
								 3.43111 0 0 1 8.91 98.88 A3.18425 3.18829 0 0 1 8.46 99.66 a0.491339 0.491961 -180 0 0 0.0440945
								 0.646488 L8.6 100.4 a0.500787 0.501422 -180 0 0 0.740157 -0.0378432 A4.47559 4.48126 -180 0 0 9.97
								 99.31 A4.54803 4.5538 -180 0 0 10.31 97.58 A4.68031 4.68625 -180 0 0 9.96 95.86 A4.28031 4.28574
								 -180 0 0 9.35 94.81 a0.497638 0.498269 -180 0 0 -0.743307 -0.0409968 L8.5 94.87 a0.48189 0.482501
								 -180 0 0 -0.0440945 0.63072 ZM2.16 94.2 L0.99 94.2 a0.988976 0.99023 -180 0 0 -0.988976 0.987076
								 L0 99.98 a0.992126 0.993383 -180 0 0 0.988976 0.99023 L2.17 100.97 a0.988976 0.99023 0 0 1 0.699213
								 0.290131 L5.82 104.2 a0.507087 0.507729 -180 0 0 0.349606 0.145066 a0.588976 0.589723 -180 0 0 0.588976
								 -0.589723 L6.76 91.4 a0.595276 0.59603 -180 0 0 -0.595276 -0.59603 a0.510236 0.510883 -180 0 0 -0.352756
								 0.145066 L2.87 93.93 a0.992126 0.993383 0 0 1 -0.699213 0.277517 L2.16 94.2 ZM38.46 118.63 A2.61732
								 2.62064 0 1 1 35.85 121.24 A2.61417 2.61749 0 0 1 38.46 118.63 ZM27.5 121.26 A2.61732 2.62064 -180
								 1 0 30.12 118.65 A2.61732 2.62064 -180 0 0 27.5 121.26 ZM19.16 121.26 A2.61732 2.62064 -180 1 0
								 21.77 118.65 A2.61732 2.62064 -180 0 0 19.16 121.26 Z" class="st3"/>
				</g>
			</g>
		</g>
	</g>
</svg>
